Yaru++/apps/scalable/asunder.svg

<svg height="256" viewBox="0 0 67.73 67.73" width="256" xmlns="http://www.w3.org/2000/svg" xmlns:xlink="http://www.w3.org/1999/xlink">
  <linearGradient id="linearGradient11065" gradientUnits="userSpaceOnUse" x1="21.10001124" x2="46.498761" y1="3.24045964" y2="62.50420908">
    <stop offset="0" stop-color="#cdcdcd"/>
    <stop offset="1" stop-color="#d9d9d9"/>
  </linearGradient>
  <filter id="filter11191" color-interpolation-filters="sRGB" height="1.024" width="1.024" x="-.012" y="-.012">
    <feGaussianBlur stdDeviation="1.12"/>
  </filter>
  <filter id="filter11210" color-interpolation-filters="sRGB" height="1.096" width="1.096" x="-.048" y="-.048">
    <feGaussianBlur stdDeviation="4.48"/>
  </filter>
  <circle cx="122.752" cy="122.752" filter="url(#filter11210)" opacity=".3" r="112" transform="matrix(.26457031 0 0 .26457031 1.322852 1.454082)"/>
  <circle cx="122.752" cy="120.75198" filter="url(#filter11191)" opacity=".1" r="112" transform="matrix(.26457031 0 0 .26457031 1.322852 1.454082)"/>
  <circle cx="33.799385" cy="32.872284" opacity=".1" r="30.161015"/>
  <circle cx="33.799385" cy="32.872284" fill="url(#linearGradient11065)" r="29.631874"/>
  <path d="m33.799387 3.2404611a29.631875 29.631875 0 0 0 -29.6318752 29.6318759h29.6318752zm0 29.6318759v29.631875a29.631875 29.631875 0 0 0 29.631875-29.631875z" fill="#fff" opacity=".2"/>
  <path d="m54.752287 11.919437a29.631875 29.631875 0 0 0 -41.9058 0l20.9529 20.9529zm-20.9529 20.9529-20.9529 20.9529a29.631875 29.631875 0 0 0 41.9058 0z" opacity=".02"/>
  <path d="m25.716383 4.3646501a29.631875 29.631875 0 0 0 -.538049.182153 29.631875 29.631875 0 0 1 1.432934-.388233 29.631875 29.631875 0 0 0 -.894885.20608zm2.333415-.537501a29.631875 29.631875 0 0 1 1.459703-.242406 29.631875 29.631875 0 0 0 -1.459703.242406zm-4.269879 1.192792a29.631875 29.631875 0 0 0 -1.385568.529078 29.631875 29.631875 0 0 1 1.385568-.529078zm7.201503-1.62203a29.631875 29.631875 0 0 1 1.470699-.09556 29.631875 29.631875 0 0 0 -1.470699.09556zm-9.929668 2.7606849a29.631875 29.631875 0 0 0 -1.331844.667682 29.631875 29.631875 0 0 1 1.331844-.667682zm12.886178-2.8954039a29.631875 29.631875 0 0 1 1.477831.05285 29.631875 29.631875 0 0 0 -1.477831-.05285zm-15.486769 4.3005269a29.631875 29.631875 0 0 0 -1.26009.797712 29.631875 29.631875 0 0 1 1.26009-.797712zm18.437477-4.1394599a29.631875 29.631875 0 0 1 1.469153.200155 29.631875 29.631875 0 0 0 -1.469153-.200155zm-20.887645 5.7985101a29.631875 29.631875 0 0 0 -1.174298.9202358 29.631875 29.631875 0 0 1 1.174298-.9202358zm23.817367-5.3424031a29.631875 29.631875 0 0 1 1.431579.343431 29.631875 29.631875 0 0 0 -1.431579-.343431zm-26.516511 7.6175769a29.631875 29.631875 0 0 0 -.336047.313125 29.631875 29.631875 0 0 1 .336047-.313125zm-.443389.429622a29.631875 29.631875 0 0 0 -4.7175592 6.128526l25.6617462 14.815817zm20.944187 20.944343 20.944188 20.944341a29.631875 29.631875 0 0 0 4.717558-6.128525zm8.878977-28.2463979a29.631875 29.631875 0 0 1 1.393106.485341 29.631875 29.631875 0 0 0 -1.393106-.485341zm2.773996 1.026918a29.631875 29.631875 0 0 1 1.344573.6256669 29.631875 29.631875 0 0 0 -1.344573-.6256669zm2.659249 1.2994679a29.631875 29.631875 0 0 1 .486056.2886421l.01754-.03038a29.631875 29.631875 0 0 0 -.503593-.258264zm-29.1105 51.55138-.01754.03038a29.631875 29.631875 0 0 0 .503595.258263 29.631875 29.631875 0 0 1 -.486056-.288641zm1.800732.962441a29.631875 29.631875 0 0 0 1.344576.625669 29.631875 29.631875 0 0 1 -1.344576-.625669zm2.725466 1.167244a29.631875 29.631875 0 0 0 1.393103.485341 29.631875 29.631875 0 0 1 -1.393103-.485341zm31.108926-6.700216a29.631875 29.631875 0 0 1 -.336049.313124 29.631875 29.631875 0 0 0 .336049-.313124zm-28.284138 7.587273a29.631875 29.631875 0 0 0 1.43158.343431 29.631875 29.631875 0 0 1 -1.43158-.343431zm26.423243-5.919208a29.631875 29.631875 0 0 1 -1.174295.920234 29.631875 29.631875 0 0 0 1.174295-.920234zm-23.531095 6.51859a29.631875 29.631875 0 0 0 1.469154.200155 29.631875 29.631875 0 0 1 -1.469154-.200155zm21.16672-4.737018a29.631875 29.631875 0 0 1 -1.26009.797714 29.631875 29.631875 0 0 0 1.26009-.797714zm-18.22469 5.045385a29.631875 29.631875 0 0 0 1.477831.05286 29.631875 29.631875 0 0 1 -1.477831-.05286zm15.695853-3.510232a29.631875 29.631875 0 0 1 -1.331844.667683 29.631875 29.631875 0 0 0 1.331844-.667683zm-12.732211 3.523929a29.631875 29.631875 0 0 0 1.470699-.09556 29.631875 29.631875 0 0 1 -1.470699.09556zm10.05777-2.246671a29.631875 29.631875 0 0 1 -1.385567.529077 29.631875 29.631875 0 0 0 1.385567-.529077zm-7.11515 1.964276a29.631875 29.631875 0 0 0 1.459703-.242404 29.631875 29.631875 0 0 1 -1.459703.242404zm4.331167-.962057a29.631875 29.631875 0 0 1 -1.432934.388231 29.631875 29.631875 0 0 0 1.432934-.388231z" fill="#faf8f6"/>
  <circle cx="33.799385" cy="-32.872288" fill="#aea795" r="10.582812" transform="scale(1 -1)"/>
  <circle cx="33.799385" cy="32.872288" fill="#faf8f6" r="9.524531"/>
  <circle cx="33.799385" cy="32.872288" fill="#4d4d4d" r="3.703984"/>
  <path d="m33.799387 62.504209a29.631875 29.631875 0 0 1 -29.6318752-29.631875 29.631875 29.631875 0 0 1 .010853-.309526 29.631875 29.631875 0 0 0 29.6210222 29.41226 29.631875 29.631875 0 0 0 29.621022-29.322348 29.631875 29.631875 0 0 1 .01085.219614 29.631875 29.631875 0 0 1 -29.631875 29.631875z" opacity=".2"/>
  <path d="m146.51367 11.931641a114 114 0 0 0 -7.38086-1.115235 114 114 0 0 0 -11.38086-.568359 114 114 0 0 0 -8.06445.285156 114 114 0 0 0 -11.3125 1.373047 114 114 0 0 0 -2.63672.591797c.96467 1.262229 1.56363 1.950419 4.22656 5.871094l11.57813 17.021484c-2.65258 4.368427-5.31863 8.378367-8.18164 12.408203-2.86301 4.029795-5.92297 8.078912-9.36133 12.519531 3.35656 3.925944 5.6228 6.568963 8.30859 9.697266.0866.100956.17513.204147.26172.304687 4.66339 5.420938 9.29339 10.789609 14.58399 17.023438.15738.111124-.16729 1.49296-.82227 3.650391-.20191.66512-.60317 1.759064-.86328 2.55664-.5836 1.789487-1.13415 3.521004-1.93555 5.736328-2.31717 6.405411-4.21093 12.309391-4.21093 12.988281 0 .24477.03513.43291.1289.54883.09359.11615.24594.15963.47852.11719.46516-.08482 1.25321-.51619 2.54687-1.41211 2.58733-1.79173 7.16484-5.54455 15.20508-12.0918l4.18164-3.392578 5.30469-4.304688 5.60351-4.546875-11.58203-12.384765c-3.17953-3.403972-6.48335-6.845899-8.99218-9.525391s-4.22266-4.599543-4.22266-4.962891c4.01419-4.136374 8.18725-8.041589 12.48633-11.796874 4.29908-3.755327 8.72417-7.358717 13.24414-10.892579-1.50226-4.573655-2.84012-9.617661-4.16602-14.695312-.97891-3.748894-1.99052-7.411019-3.02539-11.003906z" fill="#4d4d4d" stroke-width="1.104417" transform="scale(.26457031)"/>
  <path d="m33.799387 3.2404601a29.631875 29.631875 0 0 0 -29.6318752 29.6318739 29.631875 29.631875 0 0 0 .010853.309526 29.631875 29.631875 0 0 1 29.6210222-29.4122599 29.631875 29.631875 0 0 1 29.621022 29.3223489 29.631875 29.631875 0 0 0 .010848-.219615 29.631875 29.631875 0 0 0 -29.631875-29.6318739z" fill="#fff" opacity=".3"/>
</svg>

<?xml version="1.0" encoding="UTF-8" standalone="no"?>
<svg
   xmlns:dc="http://purl.org/dc/elements/1.1/"
   xmlns:cc="http://creativecommons.org/ns#"
   xmlns:rdf="http://www.w3.org/1999/02/22-rdf-syntax-ns#"
   xmlns:svg="http://www.w3.org/2000/svg"
   xmlns="http://www.w3.org/2000/svg"
   xmlns:xlink="http://www.w3.org/1999/xlink"
   xmlns:sodipodi="http://sodipodi.sourceforge.net/DTD/sodipodi-0.dtd"
   xmlns:inkscape="http://www.inkscape.org/namespaces/inkscape"
   width="256"
   height="256"
   version="1.1"
   viewBox="0 0 67.73 67.73"
   id="svg44"
   sodipodi:docname="asunder.svg"
   inkscape:version="0.92.3 (2405546, 2018-03-11)">
  <metadata
     id="metadata48">
    <rdf:RDF>
      <cc:Work
         rdf:about="">
        <dc:format>image/svg+xml</dc:format>
        <dc:type
           rdf:resource="http://purl.org/dc/dcmitype/StillImage" />
        <dc:title></dc:title>
      </cc:Work>
    </rdf:RDF>
  </metadata>
  <sodipodi:namedview
     pagecolor="#ffffff"
     bordercolor="#666666"
     borderopacity="1"
     objecttolerance="10"
     gridtolerance="10"
     guidetolerance="10"
     inkscape:pageopacity="0"
     inkscape:pageshadow="2"
     inkscape:window-width="1920"
     inkscape:window-height="1009"
     id="namedview46"
     showgrid="false"
     inkscape:zoom="9.2255339"
     inkscape:cx="111.44403"
     inkscape:cy="163.98701"
     inkscape:window-x="0"
     inkscape:window-y="34"
     inkscape:window-maximized="1"
     inkscape:current-layer="svg44" />
  <defs
     id="defs20">
    <radialGradient
       id="radialGradient971"
       cx="152"
       cy="228.005"
       r="88"
       gradientTransform="matrix(.34811542 5.4590196e-8 -5.4663176e-8 .32490771 -18.793185 208.75322)"
       gradientUnits="userSpaceOnUse">
      <stop
         style="stop-color:#ffffff;stop-opacity:0"
         offset="0"
         id="stop2" />
      <stop
         style="stop-color:#ffffff"
         offset="1"
         id="stop4" />
    </radialGradient>
    <radialGradient
       id="radialGradient893"
       cx="340"
       cy="210.56"
       r="5.5"
       gradientTransform="matrix(7.4264632,-1.2863223e-5,1.2863218e-5,7.4264601,-2490.8795,-1287.0045)"
       gradientUnits="userSpaceOnUse">
      <stop
         style="stop-color:#cccccc"
         offset="0"
         id="stop7" />
      <stop
         style="stop-color:#b3b3b3"
         offset=".628"
         id="stop9" />
      <stop
         style="stop-color:#e6e6e6"
         offset="1"
         id="stop11" />
    </radialGradient>
    <filter
       id="filter935"
       width="1.028"
       height="1.021"
       x="-.01"
       y="-.01"
       style="color-interpolation-filters:sRGB">
      <feGaussianBlur
         stdDeviation="1.041"
         id="feGaussianBlur14" />
    </filter>
    <filter
       id="filter941"
       width="1.142"
       height="1.104"
       x="-.07"
       y="-.05"
       style="color-interpolation-filters:sRGB">
      <feGaussianBlur
         stdDeviation="5.204"
         id="feGaussianBlur17" />
    </filter>
    <linearGradient
       inkscape:collect="always"
       xlink:href="#linearGradient1048"
       id="linearGradient11065"
       x1="104"
       y1="44"
       x2="200"
       y2="268"
       gradientUnits="userSpaceOnUse"
       gradientTransform="matrix(0.26457031,0,0,0.26457031,-6.4153006,-8.4006339)" />
    <linearGradient
       inkscape:collect="always"
       id="linearGradient1048">
      <stop
         style="stop-color:#cdcdcd;stop-opacity:1;"
         offset="0"
         id="stop1044" />
      <stop
         style="stop-color:#d9d9d9;stop-opacity:1"
         offset="1"
         id="stop1046" />
    </linearGradient>
    <filter
       inkscape:collect="always"
       style="color-interpolation-filters:sRGB"
       id="filter11191"
       x="-0.012"
       width="1.024"
       y="-0.012"
       height="1.024">
      <feGaussianBlur
         inkscape:collect="always"
         stdDeviation="1.12"
         id="feGaussianBlur11193" />
    </filter>
    <filter
       inkscape:collect="always"
       style="color-interpolation-filters:sRGB"
       id="filter11210"
       x="-0.048"
       width="1.096"
       y="-0.048"
       height="1.096">
      <feGaussianBlur
         inkscape:collect="always"
         stdDeviation="4.48"
         id="feGaussianBlur11212" />
    </filter>
    <linearGradient
       id="linearGradient967"
       x1="32.035999"
       x2="209.99899"
       y1="22.969999"
       y2="22.969999"
       gradientUnits="userSpaceOnUse"
       xlink:href="#linearGradient965" />
    <linearGradient
       id="linearGradient965">
      <stop
         style="stop-color:#250808"
         id="stop961"
         offset="0" />
      <stop
         style="stop-color:#250808;stop-opacity:0"
         id="stop963"
         offset="1" />
    </linearGradient>
    <filter
       style="color-interpolation-filters:sRGB"
       id="filter957"
       width="1.069"
       height="1.075"
       x="-0.039999999"
       y="-0.039999999">
      <feGaussianBlur
         id="feGaussianBlur959"
         stdDeviation="2.398" />
    </filter>
    <radialGradient
       id="radialGradient909"
       cx="-105.047"
       cy="-43.476002"
       r="13.837"
       fx="-105.047"
       fy="-43.476002"
       gradientTransform="matrix(1.1666667,0,0,1.1666667,202.51915,-1.8270228)"
       gradientUnits="userSpaceOnUse"
       xlink:href="#linearGradient5571-41" />
    <linearGradient
       id="linearGradient5571-41">
      <stop
         style="stop-color:#ffffff"
         id="stop5573-9"
         offset="0" />
      <stop
         id="stop5581-8"
         offset=".208"
         style="stop-color:#ffffff" />
      <stop
         id="stop5579-04"
         offset=".423"
         style="stop-color:#fce94f" />
      <stop
         style="stop-color:#fff86f;stop-opacity:0"
         id="stop5575-90"
         offset="1" />
    </linearGradient>
    <linearGradient
       id="linearGradient941"
       x1="27.754"
       x2="18.556999"
       y1="21.958"
       y2="24.938999"
       gradientTransform="matrix(-13.192426,0,0,13.196652,441.68513,-312.67345)"
       gradientUnits="userSpaceOnUse"
       xlink:href="#linearGradient4445" />
    <linearGradient
       id="linearGradient4445">
      <stop
         id="stop4447"
         offset="0"
         style="stop-color:#ffffff" />
      <stop
         style="stop-color:#fce94f"
         id="stop4449"
         offset=".3" />
      <stop
         id="stop4451"
         offset="1"
         style="stop-color:#fce94f;stop-opacity:0" />
    </linearGradient>
  </defs>
  <circle
     style="display:inline;opacity:0.3;fill:#000000;fill-opacity:1;stroke:none;stroke-width:1;stroke-linecap:round;stroke-linejoin:round;stroke-miterlimit:4;stroke-dasharray:none;stroke-opacity:1;filter:url(#filter11210);enable-background:new"
     id="path11042-0"
     r="112"
     cy="122.752"
     cx="122.752"
     transform="matrix(0.26457031,0,0,0.26457031,1.3228519,1.454082)" />
  <circle
     style="display:inline;opacity:0.1;fill:#000000;fill-opacity:1;stroke:none;stroke-width:1;stroke-linecap:round;stroke-linejoin:round;stroke-miterlimit:4;stroke-dasharray:none;stroke-opacity:1;filter:url(#filter11191);enable-background:new"
     id="path11042-6"
     r="112"
     cy="120.75198"
     cx="122.752"
     transform="matrix(0.26457031,0,0,0.26457031,1.3228519,1.454082)" />
  <circle
     style="display:inline;opacity:0.1;fill:#000000;fill-opacity:1;stroke:none;stroke-width:0.2645703;stroke-linecap:round;stroke-linejoin:round;stroke-miterlimit:4;stroke-dasharray:none;stroke-opacity:1;enable-background:new"
     id="path11042-7"
     cy="32.872284"
     cx="33.799385"
     r="30.161015" />
  <circle
     style="display:inline;opacity:1;fill:url(#linearGradient11065);fill-opacity:1;stroke:none;stroke-width:0.26457033;stroke-linecap:round;stroke-linejoin:round;stroke-miterlimit:4;stroke-dasharray:none;stroke-opacity:1;enable-background:new"
     id="path11042"
     r="29.631874"
     cy="32.872284"
     cx="33.799385" />
  <path
     inkscape:connector-curvature="0"
     style="display:inline;opacity:0.2;fill:#ffffff;fill-opacity:1;stroke:none;stroke-width:0.26457033;stroke-linecap:round;stroke-linejoin:round;stroke-miterlimit:4;stroke-dasharray:none;stroke-opacity:1;enable-background:new"
     d="M 33.799387,3.2404611 A 29.631875,29.631875 0 0 0 4.1675118,32.872337 H 33.799387 Z m 0,29.6318759 V 62.504212 A 29.631875,29.631875 0 0 0 63.431262,32.872337 Z"
     id="path11042-53" />
  <path
     inkscape:connector-curvature="0"
     style="display:inline;opacity:0.02000002;fill:#000000;fill-opacity:1;stroke:none;stroke-width:0.26457033;stroke-linecap:round;stroke-linejoin:round;stroke-miterlimit:4;stroke-dasharray:none;stroke-opacity:1;enable-background:new"
     d="m 54.752287,11.919437 a 29.631875,29.631875 0 0 0 -41.9058,0 l 20.9529,20.9529 z m -20.9529,20.9529 -20.9529,20.9529 a 29.631875,29.631875 0 0 0 41.9058,0 z"
     id="path11042-53-6" />
  <path
     style="display:inline;opacity:1;fill:#faf8f6;fill-opacity:1;stroke:none;stroke-width:0.26457033;stroke-linecap:round;stroke-linejoin:round;stroke-miterlimit:4;stroke-dasharray:none;stroke-opacity:1;enable-background:new"
     d="m 25.716383,4.3646501 a 29.631875,29.631875 0 0 0 -0.538049,0.182153 29.631875,29.631875 0 0 1 1.432934,-0.388233 29.631875,29.631875 0 0 0 -0.894885,0.20608 z m 2.333415,-0.537501 a 29.631875,29.631875 0 0 1 1.459703,-0.242406 29.631875,29.631875 0 0 0 -1.459703,0.242406 z m -4.269879,1.192792 a 29.631875,29.631875 0 0 0 -1.385568,0.529078 29.631875,29.631875 0 0 1 1.385568,-0.529078 z m 7.201503,-1.62203 a 29.631875,29.631875 0 0 1 1.470699,-0.09556 29.631875,29.631875 0 0 0 -1.470699,0.09556 z M 21.051754,6.158596 A 29.631875,29.631875 0 0 0 19.71991,6.826278 29.631875,29.631875 0 0 1 21.051754,6.158596 Z M 33.937932,3.2631921 a 29.631875,29.631875 0 0 1 1.477831,0.05285 29.631875,29.631875 0 0 0 -1.477831,-0.05285 z M 18.451163,7.563719 a 29.631875,29.631875 0 0 0 -1.26009,0.797712 29.631875,29.631875 0 0 1 1.26009,-0.797712 z M 36.88864,3.4242591 a 29.631875,29.631875 0 0 1 1.469153,0.200155 29.631875,29.631875 0 0 0 -1.469153,-0.200155 z M 16.000995,9.2227692 A 29.631875,29.631875 0 0 0 14.826697,10.143005 29.631875,29.631875 0 0 1 16.000995,9.2227692 Z M 39.818362,3.8803661 a 29.631875,29.631875 0 0 1 1.431579,0.343431 29.631875,29.631875 0 0 0 -1.431579,-0.343431 z M 13.301851,11.497943 a 29.631875,29.631875 0 0 0 -0.336047,0.313125 29.631875,29.631875 0 0 1 0.336047,-0.313125 z m -0.443389,0.429622 A 29.631875,29.631875 0 0 0 8.1409028,18.056091 L 33.802649,32.871908 Z m 20.944187,20.944343 20.944188,20.944341 a 29.631875,29.631875 0 0 0 4.717558,-6.128525 z M 42.681626,4.6255101 a 29.631875,29.631875 0 0 1 1.393106,0.485341 29.631875,29.631875 0 0 0 -1.393106,-0.485341 z m 2.773996,1.026918 A 29.631875,29.631875 0 0 1 46.800195,6.278095 29.631875,29.631875 0 0 0 45.455622,5.6524281 Z m 2.659249,1.2994679 a 29.631875,29.631875 0 0 1 0.486056,0.2886421 l 0.01754,-0.03038 a 29.631875,29.631875 0 0 0 -0.503593,-0.258264 z m -29.1105,51.55138 -0.01754,0.03038 a 29.631875,29.631875 0 0 0 0.503595,0.258263 29.631875,29.631875 0 0 1 -0.486056,-0.288641 z m 1.800732,0.962441 a 29.631875,29.631875 0 0 0 1.344576,0.625669 29.631875,29.631875 0 0 1 -1.344576,-0.625669 z m 2.725466,1.167244 a 29.631875,29.631875 0 0 0 1.393103,0.485341 29.631875,29.631875 0 0 1 -1.393103,-0.485341 z m 31.108926,-6.700216 a 29.631875,29.631875 0 0 1 -0.336049,0.313124 29.631875,29.631875 0 0 0 0.336049,-0.313124 z m -28.284138,7.587273 a 29.631875,29.631875 0 0 0 1.43158,0.343431 29.631875,29.631875 0 0 1 -1.43158,-0.343431 z M 52.7786,55.60081 A 29.631875,29.631875 0 0 1 51.604305,56.521044 29.631875,29.631875 0 0 0 52.7786,55.60081 Z M 29.247505,62.1194 a 29.631875,29.631875 0 0 0 1.469154,0.200155 29.631875,29.631875 0 0 1 -1.469154,-0.200155 z m 21.16672,-4.737018 a 29.631875,29.631875 0 0 1 -1.26009,0.797714 29.631875,29.631875 0 0 0 1.26009,-0.797714 z m -18.22469,5.045385 a 29.631875,29.631875 0 0 0 1.477831,0.05286 29.631875,29.631875 0 0 1 -1.477831,-0.05286 z m 15.695853,-3.510232 a 29.631875,29.631875 0 0 1 -1.331844,0.667683 29.631875,29.631875 0 0 0 1.331844,-0.667683 z m -12.732211,3.523929 a 29.631875,29.631875 0 0 0 1.470699,-0.09556 29.631875,29.631875 0 0 1 -1.470699,0.09556 z m 10.05777,-2.246671 a 29.631875,29.631875 0 0 1 -1.385567,0.529077 29.631875,29.631875 0 0 0 1.385567,-0.529077 z m -7.11515,1.964276 a 29.631875,29.631875 0 0 0 1.459703,-0.242404 29.631875,29.631875 0 0 1 -1.459703,0.242404 z m 4.331167,-0.962057 a 29.631875,29.631875 0 0 1 -1.432934,0.388231 29.631875,29.631875 0 0 0 1.432934,-0.388231 z"
     id="path11042-53-6-2"
     inkscape:connector-curvature="0" />
  <circle
     style="display:inline;opacity:1;fill:#aea795;fill-opacity:1;stroke:none;stroke-width:0.73028344;stroke-linecap:round;stroke-linejoin:round;stroke-miterlimit:4;stroke-dasharray:none;stroke-dashoffset:0;stroke-opacity:1;enable-background:new"
     id="path7147"
     cx="33.799385"
     cy="-32.872288"
     transform="scale(1,-1)"
     r="10.582812" />
  <circle
     style="display:inline;opacity:1;fill:#faf8f6;fill-opacity:1;stroke:none;stroke-width:0.68032366;stroke-linecap:round;stroke-linejoin:round;stroke-miterlimit:4;stroke-dasharray:none;stroke-dashoffset:0;stroke-opacity:1;enable-background:new"
     id="path7164"
     cx="33.799385"
     cy="32.872288"
     r="9.5245314" />
  <circle
     style="display:inline;opacity:1;fill:#4d4d4d;fill-opacity:1;stroke:none;stroke-width:0.92599607;stroke-linecap:round;stroke-linejoin:round;stroke-miterlimit:4;stroke-dasharray:none;stroke-dashoffset:0;stroke-opacity:1;enable-background:new"
     id="path7166"
     cx="33.799385"
     cy="32.872288"
     r="3.7039843" />
  <path
     inkscape:connector-curvature="0"
     style="display:inline;opacity:0.2;fill:#000000;fill-opacity:1;stroke:none;stroke-width:0.26457033;stroke-linecap:round;stroke-linejoin:round;stroke-miterlimit:4;stroke-dasharray:none;stroke-opacity:1;enable-background:new"
     d="M 33.799387,62.504209 A 29.631875,29.631875 0 0 1 4.1675118,32.872334 29.631875,29.631875 0 0 1 4.1783648,32.562808 29.631875,29.631875 0 0 0 33.799387,61.975068 29.631875,29.631875 0 0 0 63.420409,32.65272 a 29.631875,29.631875 0 0 1 0.01085,0.219614 29.631875,29.631875 0 0 1 -29.631875,29.631875 z"
     id="path11042-1-7" />
  <path
     style="fill:#4d4d4d;fill-opacity:1;stroke-width:1.10441673;enable-background:new"
     d="M 146.51367 11.931641 A 114 114 0 0 0 139.13281 10.816406 A 114 114 0 0 0 127.75195 10.248047 A 114 114 0 0 0 119.6875 10.533203 A 114 114 0 0 0 108.375 11.90625 A 114 114 0 0 0 105.73828 12.498047 C 106.70295 13.760276 107.30191 14.448466 109.96484 18.369141 L 121.54297 35.390625 C 118.89039 39.759052 116.22434 43.768992 113.36133 47.798828 C 110.49832 51.828623 107.43836 55.87774 104 60.318359 C 107.35656 64.244303 109.6228 66.887322 112.30859 70.015625 C 112.39519 70.116581 112.48372 70.219772 112.57031 70.320312 C 117.2337 75.74125 121.8637 81.109921 127.1543 87.34375 C 127.31168 87.454874 126.98701 88.83671 126.33203 90.994141 C 126.13012 91.659261 125.72886 92.753205 125.46875 93.550781 C 124.88515 95.340268 124.3346 97.071785 123.5332 99.287109 C 121.21603 105.69252 119.32227 111.5965 119.32227 112.27539 C 119.32227 112.52016 119.3574 112.7083 119.45117 112.82422 C 119.54476 112.94037 119.69711 112.98385 119.92969 112.94141 C 120.39485 112.85659 121.1829 112.42522 122.47656 111.5293 C 125.06389 109.73757 129.6414 105.98475 137.68164 99.4375 L 141.86328 96.044922 L 147.16797 91.740234 L 152.77148 87.193359 L 141.18945 74.808594 C 138.00992 71.404622 134.7061 67.962695 132.19727 65.283203 C 129.68844 62.603711 127.97461 60.68366 127.97461 60.320312 C 131.9888 56.183938 136.16186 52.278723 140.46094 48.523438 C 144.76002 44.768111 149.18511 41.164721 153.70508 37.630859 C 152.20282 33.057204 150.86496 28.013198 149.53906 22.935547 C 148.56015 19.186653 147.54854 15.524528 146.51367 11.931641 z "
     id="path1161"
     transform="scale(0.26457031)" />
  <path
     style="display:inline;opacity:0.3;fill:#ffffff;fill-opacity:1;stroke:none;stroke-width:0.26457033;stroke-linecap:round;stroke-linejoin:round;stroke-miterlimit:4;stroke-dasharray:none;stroke-opacity:1;enable-background:new"
     d="M 33.799387,3.2404601 A 29.631875,29.631875 0 0 0 4.1675118,32.872334 29.631875,29.631875 0 0 0 4.1783648,33.18186 29.631875,29.631875 0 0 1 33.799387,3.7696001 29.631875,29.631875 0 0 1 63.420409,33.091949 29.631875,29.631875 0 0 0 63.431257,32.872334 29.631875,29.631875 0 0 0 33.799382,3.2404601 Z"
     id="path11042-1"
     inkscape:connector-curvature="0" />
</svg>
